X:134
T:Unknown Glasgow Jig 7
Z:robin.beech@mcgill.ca
S:Christina Smith, Victoria Bar, Glasgow
R:jig
M:6/8
L:1/8
K:G
GAB cAA | dcA G2g | gfd cAG | ADE FGA |
B2d c2A | dcA fga | g2g afd | cAF G3 ::
GAB g3 | dBG GAB | c2=f fef | cAc =fcA |1
d2g gfg | dcA dea | gfd cAF | GAG G3 :|2
B2d c2A | dcA fga | g2g afd | cAF G3 |]
